source/images/official-plugin.svg

<svg height="33" viewBox="0 0 33 33" width="33" xmlns="http://www.w3.org/2000/svg"><g fill="none" fill-rule="evenodd"><circle cx="16.5" cy="16.5" fill="#373a3c" r="16.5"/><g transform="translate(9.153846 1.269231)"><path d="m2.39418928 0 2.82413724 6.71277454h-3.59450799l1.18826251 2.83032302h7.28595466zm9.53401512 24.0509353-1.1896513-2.8318519h-1.66948386l-.03499791-.0846428-2.30791801-5.4839941h-1.34353104l2.34333257 5.5686369h-4.27363419l7.70509634 9.5450434-2.82497052-6.7131915z" fill="#eacc2f"/><path d="m9.51104579 6.02141948-2.11729163-5.02635422h-5.27520667c-.40280536 0-.62501904 0-.80732889.58400868-.21677434.69678575-.31320322 2.15052523-.31320322 4.71154464 0 2.56102861.09642888 4.01450172.31320322 4.71114052.18230985.5837148.40452353.5837148.80732889.5837148h4.78340558l-2.3449079-5.56688326h1.93070932l-1.17103899-2.77918h.58479364l1.16931162 2.78200884zm3.47686081 3.32040705h-4.51639083l.94479175 2.24364737h3.57159908c.0890049 0 .2943952-.1089196.2943952-1.1206802 0-1.01345981-.2053903-1.12296717-.2943952-1.12296717zm0-6.10241589c.0890049 0 .2943952-.11035234.2943952-1.12211299 0-1.01301893-.2053903-1.12223239-.2943952-1.12223239h-5.00933124l.94479174 2.24434538zm.4181954 3.32040705h-6.10704936l.9456646 2.24419843h5.16138476c.0887385 0 .29468-.10949818.29468-1.12181908 0-1.01258726-.2059415-1.12237935-.29468-1.12237935zm0-2.78203639h-4.25564235l.94537055 2.24363818h3.3102718c.0887385 0 .29468-.11004926.29468-1.12237016 0-1.01176983-.2059415-1.12126802-.29468-1.12126802z" fill="#fff" transform="translate(0 9.077068)"/></g></g></svg>

<?xml version="1.0" encoding="UTF-8"?>
<svg width="33px" height="33px" viewBox="0 0 33 33" version="1.1" xmlns="http://www.w3.org/2000/svg" xmlns:xlink="http://www.w3.org/1999/xlink">
    <!-- Generator: Sketch 41 (35326) - https://www.sketchapp.com -->
    <title>official-plugin</title>
    <desc>Created with Sketch.</desc>
    <defs></defs>
    <g id="Page-1" stroke="none" stroke-width="1" fill="none" fill-rule="evenodd">
        <g id="official-plugin">
            <g>
                <circle id="Oval" fill="#373A3C" cx="16.5" cy="16.5" r="16.5"></circle>
                <g id="Group-18" transform="translate(9.153846, 1.269231)">
                    <path d="M2.39418928,0 L5.21832652,6.71277454 L1.62381853,6.71277454 L2.81208104,9.54309756 L10.0980357,9.54309756 L2.39418928,0 L2.39418928,0 Z M11.9282044,24.0509353 L10.7385531,21.2190834 L9.06906924,21.2190834 L9.03407133,21.1344406 L6.72615332,15.6504465 L5.38262228,15.6504465 L7.72595485,21.2190834 L3.45232066,21.2190834 L11.157417,30.7641268 L8.33244648,24.0509353 L11.9282044,24.0509353 L11.9282044,24.0509353 Z" id="Fill-1" fill="#EACC2F"></path>
                    <g id="Imported-Layers-3" transform="translate(0.000000, 9.077068)" fill="#FFFFFF">
                        <path d="M9.51104579,6.02141948 L7.39375416,0.995065261 L2.11854749,0.995065261 C1.71574213,0.995065261 1.49352845,0.995065261 1.3112186,1.57907394 C1.09444426,2.27585969 0.998015375,3.72959917 0.998015375,6.29061858 C0.998015375,8.85164719 1.09444426,10.3051203 1.3112186,11.0017591 C1.49352845,11.5854739 1.71574213,11.5854739 2.11854749,11.5854739 L6.90195307,11.5854739 L4.55704517,6.01859064 L6.48775449,6.01859064 L5.3167155,3.23941064 L5.90150914,3.23941064 L7.07082076,6.02141948 L9.51104579,6.02141948 Z M12.9879066,9.34182653 L8.47151577,9.34182653 L9.41630752,11.5854739 L12.9879066,11.5854739 C13.0769115,11.5854739 13.2823018,11.4765543 13.2823018,10.4647937 C13.2823018,9.45133389 13.0769115,9.34182653 12.9879066,9.34182653 L12.9879066,9.34182653 Z M12.9879066,3.23941064 C13.0769115,3.23941064 13.2823018,3.1290583 13.2823018,2.11729765 C13.2823018,1.10427872 13.0769115,0.995065261 12.9879066,0.995065261 L7.97857536,0.995065261 L8.9233671,3.23941064 L12.9879066,3.23941064 L12.9879066,3.23941064 Z M13.406102,6.55981769 L7.29905264,6.55981769 L8.24471724,8.80401612 L13.406102,8.80401612 C13.4948405,8.80401612 13.700782,8.69451794 13.700782,7.68219704 C13.700782,6.66960978 13.4948405,6.55981769 13.406102,6.55981769 L13.406102,6.55981769 Z M13.406102,3.7777813 L9.15045965,3.7777813 L10.0958302,6.02141948 L13.406102,6.02141948 C13.4948405,6.02141948 13.700782,5.91137022 13.700782,4.89904932 C13.700782,3.88727949 13.4948405,3.7777813 13.406102,3.7777813 L13.406102,3.7777813 Z" id="Fill-2"></path>
                    </g>
                </g>
            </g>
        </g>
    </g>
</svg>
